Simply-Cyan-Circles/scalable/mimes/application-x-rar.svg

<?xml version="1.0" encoding="UTF-8" standalone="no"?>
<svg
   xmlns:dc="http://purl.org/dc/elements/1.1/"
   xmlns:cc="http://creativecommons.org/ns#"
   xmlns:rdf="http://www.w3.org/1999/02/22-rdf-syntax-ns#"
   xmlns:svg="http://www.w3.org/2000/svg"
   xmlns="http://www.w3.org/2000/svg"
   xmlns:sodipodi="http://sodipodi.sourceforge.net/DTD/sodipodi-0.dtd"
   xmlns:inkscape="http://www.inkscape.org/namespaces/inkscape"
   width="48"
   height="48"
   viewBox="0 0 12.7 12.7"
   version="1.1"
   id="svg4"
   sodipodi:docname="application-x-rar.svg"
   inkscape:version="0.92.5 (2060ec1f9f, 2020-04-08)">
  <defs
     id="defs8">
  <style
     id="current-color-scheme"
     type="text/css">
      .ColorScheme-Highlight {
        color:#5beedc;
      }
  </style>
  </defs>
  <path
     class="ColorScheme-Highlight"
     style="fill:currentColor"
     d="M 5 3 L 1.0019531 13.001953 L 22.998047 13.001953 L 22.998047 3 L 5 3 z M 25.001953 3 L 25.001953 13.001953 L 46.998047 13.001953 L 43 3 L 25.001953 3 z M 1.0019531 15 L 1.0019531 39 C 1.0019531 43.429606 4.5703937 46.998047 9 46.998047 L 39 46.998047 A 7.9823622 7.9823622 0 0 0 46.998047 39 L 46.998047 15 L 44.001953 15 L 44.001953 39 A 4.9889764 4.9889764 0 0 1 39 44.001953 L 8.9960938 44.001953 A 4.9889764 4.9889764 0 0 1 3.9941406 39 L 3.9941406 15 L 1.0019531 15 z "
     transform="scale(0.26458333)"
     id="path864" />
  <path
     style="fill:#aa0088"
     d="m 1.8520831,5.0270833 v 1.0583333 h 0.264584 v 1.0583333 h 0.529166 V 6.0854166 h 0.264584 V 5.0270833 Z m 1.32085,0 v 0.5296834 h 0.5302 V 5.0270833 Z m 0.5302,0.5296834 v 0.5302001 h 0.529684 V 5.5567667 Z m 0.529684,0 H 4.763017 V 5.0270833 H 4.2328171 Z m 0.5301999,0 v 0.5302001 h 0.5302 V 5.5567667 Z m 0.5302,0 H 5.813082 V 5.0270833 H 5.293217 Z m 0.519865,0 V 6.0869668 H 6.3427652 V 5.5567667 Z m 0.5296832,0 H 6.8729653 V 5.0270833 H 6.3427652 Z m 0.5302001,0 V 6.0869668 H 7.4031657 V 5.5567667 Z m 0.5302004,0 H 7.9328491 V 5.0270833 H 7.4031657 Z m 0.5296834,0 V 6.0869668 H 8.4630492 V 5.5567667 Z m 0.5302001,0 H 8.9932493 V 5.0270833 H 8.4630492 Z m 0.5302001,0 V 6.0869668 H 9.522933 V 5.5567667 Z m 0.5296837,0 h 0.5302 V 5.0270833 h -0.5302 z m 0.5302,0 v 0.5302001 h 0.529683 V 5.5567667 Z m 0.529683,0 h 0.530201 V 5.0270833 H 10.582816 Z M 2.1166671,5.2916666 h 0.529166 v 0.5291667 h -0.529166 z"
     id="path856"
     inkscape:connector-curvature="0" />
</svg>

<?xml version="1.0" encoding="UTF-8" standalone="no"?>
<svg
   xmlns:dc="http://purl.org/dc/elements/1.1/"
   xmlns:cc="http://creativecommons.org/ns#"
   xmlns:rdf="http://www.w3.org/1999/02/22-rdf-syntax-ns#"
   xmlns:svg="http://www.w3.org/2000/svg"
   xmlns="http://www.w3.org/2000/svg"
   xmlns:sodipodi="http://sodipodi.sourceforge.net/DTD/sodipodi-0.dtd"
   xmlns:inkscape="http://www.inkscape.org/namespaces/inkscape"
   width="48"
   height="48"
   viewBox="0 0 12.7 12.7"
   version="1.1"
   id="svg6"
   sodipodi:docname="application-x-rar.svg"
   inkscape:version="0.92.5 (2060ec1f9f, 2020-04-08)">
  <metadata
     id="metadata12">
    <rdf:RDF>
      <cc:Work
         rdf:about="">
        <dc:format>image/svg+xml</dc:format>
        <dc:type
           rdf:resource="http://purl.org/dc/dcmitype/StillImage" />
        <dc:title></dc:title>
      </cc:Work>
    </rdf:RDF>
  </metadata>
  <defs
     id="defs10" />
  <sodipodi:namedview
     pagecolor="#ffffff"
     bordercolor="#666666"
     borderopacity="1"
     objecttolerance="10"
     gridtolerance="10"
     guidetolerance="10"
     inkscape:pageopacity="0"
     inkscape:pageshadow="2"
     inkscape:window-width="1087"
     inkscape:window-height="480"
     id="namedview8"
     showgrid="false"
     inkscape:zoom="4.9166667"
     inkscape:cx="2.1355932"
     inkscape:cy="24"
     inkscape:window-x="0"
     inkscape:window-y="25"
     inkscape:window-maximized="0"
     inkscape:current-layer="svg6" />
  <path
     d="M 1.323,0.794 0.265,3.44 h 5.82 V 0.794 Z m 5.292,0 V 3.44 h 5.82 L 11.377,0.794 Z m -6.35,3.175 v 6.35 c 0,1.172 0.944,2.116 2.116,2.116 h 7.938 a 2.112,2.112 0 0 0 2.116,-2.116 v -6.35 h -0.793 v 6.35 a 1.32,1.32 0 0 1 -1.323,1.323 H 2.38 A 1.32,1.32 0 0 1 1.057,10.319 v -6.35 z m 1.588,1.008 v 1.06 h 0.28 v 1.06 h 0.53 v -1.06 h 0.26 v -1.06 z m 1.32,0.05 v 0.53 h 0.53 v -0.53 z m 0.53,0.53 v 0.53 h 0.53 v -0.53 z m 0.53,0 h 0.53 v -0.53 h -0.53 z m 0.53,0 v 0.53 h 0.53 v -0.53 z m 0.53,0 h 0.52 v -0.53 h -0.52 z m 0.52,0 v 0.53 h 0.53 v -0.53 z m 0.53,0 h 0.53 v -0.53 h -0.53 z m 0.53,0 v 0.53 h 0.53 v -0.53 z m 0.53,0 h 0.53 v -0.53 h -0.53 z m 0.53,0 v 0.53 h 0.53 v -0.53 z m 0.53,0 h 0.53 v -0.53 h -0.53 z m 0.53,0 v 0.53 h 0.53 v -0.53 z m 0.53,0 h 0.53 v -0.53 h -0.53 z m 0.53,0 v 0.53 h 0.53 v -0.53 z m 0.53,0 h 0.53 v -0.53 h -0.53 z m -8.46,-0.31 h 0.53 v 0.53 h -0.53 z m 2.3,2.3 v 0.01 z"
     id="path2"
     inkscape:connector-curvature="0"
     style="fill:#5beedc" />
  <path
     d="m 5.228,8.643 a 0.42,0.42 0 0 0 -0.008,0 0.42,0.42 0 0 0 -0.37,0.21 c 0,-0.05 0.03,-0.15 -0.02,-0.17 H 4.47 v 1.76 h 0.42 v -1.07 c 0.01,-0.2 0.19,-0.34 0.38,-0.32 v -0.41 a 0.42,0.42 0 0 0 -0.042,0 z m 1.032,0 a 0.87,0.87 0 0 0 -0.12,0.01 0.87,0.87 0 0 0 -0.72,0.77 c -0.06,0.38 0.11,0.81 0.48,0.98 0.3,0.14 0.71,0.12 0.95,-0.15 0.06,-0.08 0.02,0.09 0.03,0.13 -0.03,0.1 0.07,0.05 0.13,0.06 H 7.26 V 8.683 H 6.88 v 0.241 a 0.67,0.67 0 0 0 -0.54,-0.28 0.87,0.87 0 0 0 -0.08,0 z m 2.08,0 A 0.42,0.42 0 0 0 7.97,8.853 C 7.95,8.803 7.99,8.703 7.95,8.683 H 7.58 v 1.76 H 8 v -1.07 c 0.01,-0.2 0.2,-0.34 0.38,-0.32 v -0.41 a 0.42,0.42 0 0 0 -0.04,0 z m -2.02,0.39 a 0.55,0.55 0 0 1 0.03,0 0.51,0.51 0 0 1 0.51,0.48 c 0.03,0.25 -0.13,0.54 -0.4,0.57 -0.24,0.06 -0.54,-0.08 -0.6,-0.34 -0.09,-0.28 0.05,-0.63 0.35,-0.7 a 0.55,0.55 0 0 1 0.11,-0.01 z"
     id="path4"
     inkscape:connector-curvature="0"
     style="fill:#5beedc" />
</svg>
